fs/folder_open_20_filled.svg

<svg viewBox="0 0 20 20" fill="none" xmlns="http://www.w3.org/2000/svg" height="1em" width="1em">
  <path d="M2 5.50033C1.99982 4.11949 3.11916 3 4.5 3H7.16399C7.48851 3 7.80428 3.10525 8.06391 3.29995L9.66418 4.5H14.4956C15.8763 4.5 16.9956 5.61929 16.9956 7V7.00214H5.82358C5.10582 7.00214 4.48864 7.51061 4.3513 8.21512L2.77417 16.3051C2.29794 15.85 2.00128 15.2085 2.00118 14.4978L2 5.50033ZM3.77323 16.4065C3.71305 16.7152 3.94946 17.0021 4.26399 17.0021H15.1798C15.8982 17.0021 16.5157 16.4929 16.6524 15.7877L18.0467 8.59732C18.1065 8.28874 17.8702 8.00214 17.5558 8.00214H5.82358C5.58432 8.00214 5.3786 8.17163 5.33282 8.40646L3.77323 16.4065Z" fill="#212121"/>
</svg>

<svg viewBox="0 0 20 20" fill="none" xmlns="http://www.w3.org/2000/svg" height="1em" width="1em">
  <path d="M2 5.5A2.5 2.5 0 0 1 4.5 3h2.664c.325 0 .64.105.9.3l1.6 1.2h4.832a2.5 2.5 0 0 1 2.5 2.5v.002H5.824A1.5 1.5 0 0 0 4.35 8.215l-1.577 8.09A2.493 2.493 0 0 1 2 14.498V5.5Zm1.773 10.907a.5.5 0 0 0 .491.595H15.18a1.5 1.5 0 0 0 1.472-1.214l1.395-7.19a.5.5 0 0 0-.491-.596H5.824a.5.5 0 0 0-.491.404l-1.56 8Z" fill="#212121"/>
</svg>
